src/public/img/landing/new/dev-friendly/2.svg

<svg width="64" height="64" viewBox="0 0 64 64" fill="none" xmlns="http://www.w3.org/2000/svg">
<rect width="64" height="64" rx="16" fill="url(#paint0_linear_2628_7056)"/>
<path d="M44 28C44 23.5817 40.4183 20 36 20" stroke="white" stroke-width="2"/>
<path d="M36 36C40.4183 36 44 32.4183 44 28" stroke="white" stroke-width="2"/>
<path d="M28 28C28 23.5817 31.5817 20 36 20" stroke="white" stroke-width="2"/>
<path d="M20 36C20 40.4183 23.5817 44 28 44" stroke="white" stroke-width="2"/>
<path d="M28 28C23.5817 28 20 31.5817 20 36" stroke="white" stroke-width="2"/>
<path d="M29.3672 29.1333C29.909 29.2404 30.4351 28.8881 30.5423 28.3463C30.6495 27.8046 30.2971 27.2785 29.7554 27.1713L29.3672 29.1333ZM33.0012 28.5165C32.5423 28.2093 31.9212 28.3322 31.614 28.7912C31.3067 29.2501 31.4297 29.8712 31.8886 30.1784L33.0012 28.5165ZM33.8216 32.1114C34.1288 32.5703 34.7499 32.6933 35.2088 32.386C35.6678 32.0788 35.7907 31.4577 35.4835 30.9988L33.8216 32.1114ZM36.8287 34.2446C36.7215 33.7029 36.1954 33.3505 35.6537 33.4577C35.1119 33.5649 34.7596 34.091 34.8667 34.6328L36.8287 34.2446ZM28 29C28.4688 29 28.9258 29.0459 29.3672 29.1333L29.7554 27.1713C29.1868 27.0588 28.5998 27 28 27V29ZM31.8886 30.1784C32.6524 30.6898 33.3102 31.3476 33.8216 32.1114L35.4835 30.9988C34.8267 30.0177 33.9823 29.1733 33.0012 28.5165L31.8886 30.1784ZM34.8667 34.6328C34.9541 35.0742 35 35.5312 35 36H37C37 35.4002 36.9412 34.8132 36.8287 34.2446L34.8667 34.6328Z" fill="white"/>
<path d="M34.6323 34.8667C34.0905 34.7596 33.5644 35.1119 33.4572 35.6537C33.35 36.1954 33.7024 36.7215 34.2441 36.8287L34.6323 34.8667ZM30.9983 35.4835C31.4572 35.7907 32.0783 35.6678 32.3856 35.2088C32.6928 34.7499 32.5698 34.1288 32.1109 33.8216L30.9983 35.4835ZM30.178 31.8886C29.8707 31.4297 29.2496 31.3067 28.7907 31.614C28.3317 31.9212 28.2088 32.5423 28.516 33.0012L30.178 31.8886ZM27.1708 29.7554C27.278 30.2971 27.8041 30.6495 28.3459 30.5423C28.8876 30.4351 29.24 29.909 29.1328 29.3672L27.1708 29.7554ZM35.9995 35C35.5307 35 35.0737 34.9541 34.6323 34.8667L34.2441 36.8287C34.8127 36.9412 35.3997 37 35.9995 37L35.9995 35ZM32.1109 33.8216C31.3471 33.3102 30.6893 32.6524 30.178 31.8886L28.516 33.0012C29.1728 33.9823 30.0172 34.8267 30.9983 35.4835L32.1109 33.8216ZM29.1328 29.3672C29.0455 28.9258 28.9995 28.4688 28.9995 28L26.9995 28C26.9995 28.5998 27.0583 29.1868 27.1708 29.7554L29.1328 29.3672Z" fill="white"/>
<path d="M36 36C36 40.4183 32.4183 44 28 44" stroke="white" stroke-width="2"/>
<defs>
<linearGradient id="paint0_linear_2628_7056" x1="32" y1="0" x2="32" y2="64" gradientUnits="userSpaceOnUse">
<stop stop-color="white" stop-opacity="0.16"/>
<stop offset="1" stop-color="white" stop-opacity="0.08"/>
</linearGradient>
</defs>
</svg>

<svg xmlns="http://www.w3.org/2000/svg" width="64" height="64" fill="none">
  <rect width="64" height="64" fill="url(#a)" rx="16"/>
  <path stroke="#fff" stroke-width="2" d="M44 28a8 8 0 0 0-8-8m0 16a8 8 0 0 0 8-8m-16 0a8 8 0 0 1 8-8M20 36a8 8 0 0 0 8 8m0-16a8 8 0 0 0-8 8"/>
  <path fill="#fff" d="M29.367 29.133a1 1 0 0 0 .388-1.962l-.388 1.962Zm3.634-.616a1 1 0 1 0-1.112 1.661L33 28.516Zm.82 3.594A1 1 0 1 0 35.485 31l-1.662 1.112Zm3.008 2.134a1 1 0 0 0-1.962.388l1.962-.388ZM28 29c.469 0 .926.046 1.367.133l.388-1.962A9.038 9.038 0 0 0 28 27v2Zm3.889 1.178a7.046 7.046 0 0 1 1.933 1.933L35.483 31a9.043 9.043 0 0 0-2.482-2.482l-1.112 1.661Zm2.978 4.455c.087.441.133.898.133 1.367h2c0-.6-.059-1.187-.171-1.755l-1.962.388Z"/>
  <path fill="#fff" d="M34.632 34.867a1 1 0 0 0-.388 1.962l.388-1.962Zm-3.634.617a1 1 0 0 0 1.113-1.662l-1.113 1.661Zm-.82-3.595A1 1 0 0 0 28.516 33l1.662-1.112Zm-3.007-2.134a1 1 0 0 0 1.962-.388l-1.962.388ZM35.999 35c-.468 0-.925-.046-1.367-.133l-.388 1.962A9.038 9.038 0 0 0 36 37v-2Zm-3.888-1.178a7.044 7.044 0 0 1-1.933-1.933L28.516 33a9.043 9.043 0 0 0 2.482 2.483l1.113-1.662Zm-2.978-4.455A7.04 7.04 0 0 1 29 28h-2c0 .6.058 1.187.17 1.755l1.963-.388Z"/>
  <path stroke="#fff" stroke-width="2" d="M36 36a8 8 0 0 1-8 8"/>
  <defs>
    <linearGradient id="a" x1="32" x2="32" y1="0" y2="64" gradientUnits="userSpaceOnUse">
      <stop stop-color="#fff" stop-opacity=".16"/>
      <stop offset="1" stop-color="#fff" stop-opacity=".08"/>
    </linearGradient>
  </defs>
</svg>
